X:1
T:The Hour of Prayer
T: John Robson Sweney (1837-1899)
T:The Hour of Prayer
T:Public Domain
T:Public Domain
C:John Robson Sweney (1837-1899)
Z:Public Domain
%%score ( 1 2 ) ( 3 4 )
L:1/8
M:6/8
K:Ab
V:1 treble 
V:2 treble 
V:3 bass 
V:4 bass 
V:1
 [Ec]>[Ec][Ec] [Ec][DB][CA] | [CE]2 [DF] [CA]3 | [EB]>[Ec][Ed] [Ec]2 [EB] | (z CE AEC) | %4
w: 1.~Glo- ry to God for the|joy to meet|Here at the hour of||
w: 2.~Far from the world we may|turn a- way,|Here at the hour of||
w: 3.~Rich are the bless- ings that|all may seek|Here at the hour of||
w: 4.~Oh, what a ho- ly and|calm re- pose|Here at the hour of||
 [Ec]>[Ec][Ec] [Ec][DB][CA] | [CE]2 [DF] [EA]3 | [EG]>[EG][EB] [DA]2 [DF] | E6 || %8
w: Wel- come the bliss of com-|mun- ion sweet|Here at the hour of|prayer!|
w: Glad- ly we rest from the|toils of day|Here at the hour of|prayer.|
w: Grace for the wea- ry, the|faint, the weak,|Here at the hour of|prayer.|
w: Love in its full- ness the|heart o’er- flows|Here at the hour of|prayer.|
"^Refrain" [Ed]>[Ec][EB] [EB][Ec][Ed] | [Ec]2 [DB] [CA]3 | [Ee]>[Ed][Ec] [Ec][Ed][Ee] | %11
w: |||
w: er the gate to the soul’s|bright home, Near-|er the vales where the faith-|
w: |||
w: |||
 [Ed]2 [Ec] [EB]3 | [Ec]>[Ed][Ee] [Ee][Ec][EA] | [FB]2 [FA] [DF]3 | [CE]>[EA][EG] [Ec]2 [DB] | %15
w: ||||
w: ful roam, Near-|er to God and the Lamb|we come, Here|at the hour of prayer.|
w: ||||
w: ||||
 [CA]6 |] %16
w: |
w: |
w: |
w: |
V:2
 x6 | x6 | x6 | ([Ec-]3 c2) x | x6 | x6 | x6 | E6 || x6 | x6 | x6 | x6 | x6 | x6 | x6 | x6 |] %16
w: |||prayer; *|||||||||||||
w: |||prayer; *||||Near-|||||||||
w: |||prayer; *|||||||||||||
w: |||prayer! *|||||||||||||
V:3
 [A,,A,]>[A,,A,][A,,A,] [A,,A,][A,,E,][A,,E,] | [A,,A,]2 [A,,A,] [A,,E,]3 | %2
 [E,G,]>[E,G,][E,B,] [E,A,]2 [E,G,] | [A,,A,]6 | [A,,A,]>[A,,A,][A,,A,] [A,,A,][A,,E,][A,,E,] | %5
 [A,,A,]2 [A,,A,] [A,,C]3 | [B,,B,]>[B,,B,][B,,G,] [B,,F,]2 [B,,A,] | [E,G,]6 || %8
 [E,B,]>[E,A,][E,G,] [E,G,][E,A,][E,B,] | [A,,A,]2 [A,,E,] [A,,E,]3 | %10
 [A,C]>[A,B,]A, A,[A,B,][A,C] | [G,B,]2 A, [E,G,]3 | A,>[A,B,][A,C] [A,C]A,[A,C] | %13
 [D,D]2 [D,D] [D,A,]3 | [E,A,]>[E,C][E,B,] [E,A,]2 [E,G,] | [A,,E,A,]6 |] %16
V:4
 x6 | x6 | x6 | x6 | x6 | x6 | x6 | x6 || x6 | x6 | x2 A, A, x2 | x2 A, x3 | A,3/2 x A, x5/2 | x6 | %14
 x6 | x6 |] %16

